X: 4716
T: Boys Of Ballinamore, The
R: jig
M: 6/8
K: Dmixolydian
|:B|cAF ~G3|ABc AdB|cAF GFG|Ade fed|
cAF ~G3|ABc AdB|cAF GFG|Ad^c d2:|
g|:fed efg|ecc gcg|fed efg|age d2d/e/|
fed efg|~e3 geg|faf e/f/ge|d2e fed:|

